src/telerik-icons/solid/table.svg

<?xml version="1.0" encoding="utf-8"?>
<svg xmlns="http://www.w3.org/2000/svg" width="512" height="512" viewBox="0 0 512 512">
  <path d="M32 32v416h416V32H32zm256 32v96h-96V64h96zm0 128v96h-96v-96h96zM64 64h96v96H64V64zm0 128h96v96H64v-96zm0 224v-96h96v96H64zm128 0v-96h96v96h-96zm224 0h-96v-96h96v96zm0-128h-96v-96h96v96zm0-128h-96V64h96v96z"/>
</svg>

<?xml version="1.0" encoding="utf-8"?>
<!-- Generator: Adobe Illustrator 20.1.0, SVG Export Plug-In . SVG Version: 6.00 Build 0)  -->
<svg xmlns="http://www.w3.org/2000/svg" width="512" height="512" viewBox="0 0 512 512">
<path d="M32,32v416h416V32H32z M288,64v96h-96V64H288z M288,192v96h-96v-96H288z M64,64h96v96H64V64z M64,192h96v96H64V192z M64,416
	v-96h96v96H64z M192,416v-96h96v96H192z M416,416h-96v-96h96V416z M416,288h-96v-96h96V288z M416,160h-96V64h96V160z" />
</svg>
